X: 886
T: Ship in the Clouds
C:Old-Time
B: jims roots
M:C|
L:1/8
Q: 1/4=100
K:D
V:1 
fg||"D"a2 fg a2 ab | agfe d2 ab- | "G"baga b2b2 |
"D"agfe d2fa- | a2a2 a3b | agfe d2 d2 ||
|: ded=c Bcd2 | "G"g3a g2AB | "C"=c2 cG cGAF | "G"GFGA B^cdB |
"D"AGFE D2ef- | fef2 "A"ec[c2e2] | [1 "D"[d3f3]d [d3f3]d:|[2 "D"[d3f3]d [d4f4]|]
% abcbook-tune_id 6298c287e3cd5f2e78cf48dd


% abcbook-boost 0
% abcbook-tablature 
% abcbook-transpose 
% abcbook-lastupdated 1654178440350
% abcbook-soundfonts 
% abcbook-repeats 1


